X:476
T:
R:vals
S:Ur en gammal dansbok tillhörande Gotlands fornsal.
O:Gotland, Burs
M:3/4
L:1/8
K:Bb
B2 f2 d2|b3 agf|edcBAG|F2 G2 A2|B2 f2 d2|b3 agf|=efgf_ec|B4 z2::
cfafaf|dfbfbf|efafaf|bafdec|
B2 f2 d2|B2 g2 e2|cAFecA|1 B4 z2:|2 B4 B2::
K:Eb
g4 f2|e4 d2|c4 B2|A4 c2|a4 g2|f4 e2|edcBcd|1 eBGBef:|
[2 e4 B2|:d4 e2|f4 g2|b2 a2 g2|f2 b2 B2|
g4 d2|e4 B2|c2 f2 d2|1 e4 B2:|2 e4 z2:|

